X:1
T:Title
%%score { 1 | 2 }
L:1/8
M:4/4
K:F
V:1 treble nm="Grand Piano"
V:2 bass 
V:1
 z4 z2[Q:1/4=116] c2 | c3 c d2 c2 | A3 G F2 [EG]2 | A2 A2 c2 A2 |[M:3/4] [FA]4 [EG]2 | %5
[M:1/4] [Ec]2 |[M:4/4] c3 c d2 c2 | A3 G F2 [DFG]2 | [FA]2 [FA]2 [EB]2 [EG]2 |[M:3/4] F6 | %10
[M:1/4] F2 |[M:4/4] [Fd]3 d f2 d2 | c3 B A2 A2 | G2 c2 e2 d2 | [Ec]6 [Ec]2 | c3 c d2 c2 | %16
 A3 G F2 [DFG]2 | [FA]2 [FA]2 [EB]2 [EG]2 |[M:7/4] F6 z2 z2 z4 |] %19
V:2
 z4 z2 [F,A,F]2 | [F,A,F]3 [F,A,F] [F,B,F]2 [F,A,F]2 | [F,CF]3 [F,B,F] [F,A,]2 [C,C]2 | %3
 [F,CF]2 [F,CF]2 [A,CF]2[K:bass] [F,CF]2 |[M:3/4] [C,C]6 |[M:1/4] [C,B,]2 | %6
[M:4/4] [F,A,F]3 [F,A,F] [F,B,F]2 [F,A,F]2 | [F,CF]3 [F,B,F] [F,A,]2 B,,2 | %8
 [C,C]2 [C,C]2 [C,G,]2 [C,B,]2 |[M:3/4] [F,A,]6 |[M:1/4] F,2 | %11
[M:4/4] [B,,B,]3[K:treble] [B,F] [B,DF]2 [B,F]2 | [A,CF]3 [G,CE] [F,CF]2 [F,CF]2 | %13
 [G,CE]2 [G,CE]2 [G,=B,G]2 [G,B,F]2 | [C,C]6 [C,B,]2 | [F,A,F]3 [F,A,F] [F,B,F]2 [F,A,F]2 | %16
 [F,CF]3 [F,B,F] [F,A,]2 B,,2 | [C,C]2 [C,C]2 [C,G,]2 [C,B,]2 |[M:7/4] [F,A,]6 z2 z2 z4 |] %19

